ExpEYES17/UserManual/fr/rst/exp/schematics/amfm.svg

<?xml version="1.0" encoding="UTF-8" standalone="no"?>
<svg
   xmlns:dc="http://purl.org/dc/elements/1.1/"
   xmlns:cc="http://creativecommons.org/ns#"
   xmlns:rdf="http://www.w3.org/1999/02/22-rdf-syntax-ns#"
   xmlns:svg="http://www.w3.org/2000/svg"
   xmlns="http://www.w3.org/2000/svg"
   xmlns:sodipodi="http://sodipodi.sourceforge.net/DTD/sodipodi-0.dtd"
   xmlns:inkscape="http://www.inkscape.org/namespaces/inkscape"
   version="1.1"
   id="amfm"
   width="100%"
   height="100%"
   viewBox="-6 -6 406 342"
   sodipodi:docname="amfm.svg"
   inkscape:version="0.92.2 (5c3e80d, 2017-08-06)"
   inkscape:export-filename="/home/georgesk/developpement/expeyes/expeyes/ExpEYES17/UserManual/fr/rst/exp/schematics/amfm.png"
   inkscape:export-xdpi="71.641792"
   inkscape:export-ydpi="71.641792">
  <metadata
     id="metadata79">
    <rdf:RDF>
      <cc:Work
         rdf:about="">
        <dc:format>image/svg+xml</dc:format>
        <dc:type
           rdf:resource="http://purl.org/dc/dcmitype/StillImage" />
        <dc:title></dc:title>
      </cc:Work>
    </rdf:RDF>
  </metadata>
  <defs
     id="defs77" />
  <sodipodi:namedview
     pagecolor="#ffffff"
     bordercolor="#666666"
     borderopacity="1"
     objecttolerance="10"
     gridtolerance="10"
     guidetolerance="10"
     inkscape:pageopacity="0"
     inkscape:pageshadow="2"
     inkscape:window-width="1310"
     inkscape:window-height="806"
     id="namedview75"
     showgrid="false"
     inkscape:zoom="1.6281067"
     inkscape:cx="194.40106"
     inkscape:cy="171"
     inkscape:window-x="0"
     inkscape:window-y="0"
     inkscape:window-maximized="0"
     inkscape:current-layer="amfm" />
  <desc
     id="desc2">
XCircuit Version 3.7
File &quot;amfm.ps&quot; Page 1
</desc>
  <path
     style="fill:none;stroke:#000000;stroke-width:2;stroke-linecap:round;stroke-linejoin:bevel"
     inkscape:connector-curvature="0"
     id="path4"
     d="m 304,64 v 48 h 64 V 64 Z" />
  <text
     font-size="40"
     id="text8"
     style="font-size:40px;font-family:Helvetica;fill:#000000;stroke:none"
     x="336"
     y="192">
    <tspan
       x="310"
       y="192"
       id="tspan6">A2</tspan>
  </text>
  <path
     style="fill:none;stroke:#000000;stroke-width:2;stroke-linecap:round;stroke-linejoin:bevel"
     inkscape:connector-curvature="0"
     id="path12"
     d="m 304,160 v 48 h 64 v -48 z" />
  <text
     font-size="40"
     id="text16"
     style="font-size:40px;font-family:Helvetica;fill:#000000;stroke:none"
     x="336"
     y="96">
    <tspan
       x="315"
       y="96"
       id="tspan14">A1</tspan>
  </text>
  <path
     style="fill:none;stroke:#000000;stroke-width:2;stroke-linecap:round;stroke-linejoin:bevel"
     inkscape:connector-curvature="0"
     id="path20"
     d="m 16,16 v 96 H 208 V 16 Z" />
  <text
     font-size="40"
     id="text24"
     style="font-size:40px;font-family:Helvetica;fill:#000000;stroke:none"
     x="336"
     y="288">
    <tspan
       x="293"
       y="288"
       id="tspan22">GND</tspan>
  </text>
  <path
     style="fill:none;stroke:#000000;stroke-width:2;stroke-linecap:round;stroke-linejoin:bevel"
     inkscape:connector-curvature="0"
     id="path28"
     d="M 0,0 V 336 H 400 V 0 Z" />
  <text
     font-size="40"
     id="text32"
     style="font-size:40px;font-family:Helvetica;fill:#000000;stroke:none"
     x="115.02312"
     y="52.391064">
    <tspan
       x="24.023125"
       y="52.391064"
       id="tspan30">Sortie AM</tspan>
  </text>
  <path
     style="fill:none;stroke:#000000;stroke-width:2;stroke-linecap:round;stroke-linejoin:bevel"
     inkscape:connector-curvature="0"
     id="path36"
     d="m 16,144 v 80 h 208 v -80 z" />
  <text
     font-size="40"
     id="text40"
     style="font-size:40px;font-family:Helvetica;fill:#000000;stroke:none"
     x="117.80907"
     y="177.28947">
    <tspan
       x="64.809059"
       y="177.28947"
       id="tspan38">Signal</tspan>
  </text>
  <path
     style="fill:none;stroke:#000000;stroke-width:2;stroke-linecap:round;stroke-linejoin:bevel"
     inkscape:connector-curvature="0"
     id="path44"
     d="m 208,80 c 1,0 64,32 96,0" />
  <text
     font-size="40"
     id="text48"
     style="font-size:40px;font-family:Helvetica;fill:#000000;stroke:none"
     x="96"
     y="288">
    <tspan
       x="53"
       y="288"
       id="tspan46">GND</tspan>
  </text>
  <path
     style="fill:none;stroke:#000000;stroke-width:2;stroke-linecap:round;stroke-linejoin:bevel"
     inkscape:connector-curvature="0"
     id="path52"
     d="m 48,256 v 48 h 96 v -48 z" />
  <path
     style="fill:none;stroke:#000000;stroke-width:2;stroke-linecap:round;stroke-linejoin:bevel"
     inkscape:connector-curvature="0"
     id="path54"
     d="m 288,256 v 48 h 96 v -48 z" />
  <path
     style="fill:none;stroke:#000000;stroke-width:2;stroke-linecap:round;stroke-linejoin:bevel"
     inkscape:connector-curvature="0"
     id="path56"
     d="m 144,272 c 1,0 96,-32 144,0" />
  <text
     font-size="40"
     id="text60"
     style="font-size:40px;font-family:Helvetica;fill:#000000;stroke:none"
     x="42.400936"
     y="94.065773">
    <tspan
       x="42.400936"
       y="94.065773"
       id="tspan58">Externe</tspan>
  </text>
  <text
     font-size="40"
     id="text66"
     style="font-size:40px;font-family:Helvetica;fill:#000000;stroke:none"
     x="36.703125"
     y="217.76631">
    <tspan
       x="36.703125"
       y="217.76631"
       id="tspan64">modulant</tspan>
  </text>
  <path
     style="fill:none;stroke:#000000;stroke-width:2;stroke-linecap:round;stroke-linejoin:bevel"
     inkscape:connector-curvature="0"
     id="path70"
     d="m 224,192 c 1,0 80,16 80,-16" />
  <text
     xml:space="preserve"
     style="font-style:normal;font-variant:normal;font-weight:normal;font-stretch:normal;font-size:21.33333397px;line-height:23px;font-family:sans-serif;-inkscape-font-specification:'sans-serif, Normal';font-variant-ligatures:normal;font-variant-caps:normal;font-variant-numeric:normal;font-feature-settings:normal;text-align:center;letter-spacing:0px;word-spacing:0px;writing-mode:lr-tb;text-anchor:middle;fill:#000000;fill-opacity:1;stroke:none;stroke-width:1px;stroke-linecap:butt;stroke-linejoin:miter;stroke-opacity:1"
     x="146.93839"
     y="37.493771"
     id="text133"><tspan
       sodipodi:role="line"
       id="tspan131"
       x="146.93839"
       y="54.535439"></tspan></text>
</svg>

<svg xmlns="http://www.w3.org/2000/svg"
   xmlns:xlink="http://www.w3.org/1999/xlink"
   version="1.1"
   id="amfm" width="100%" height="100%"  viewBox="-6 -6 406 342">
<desc>
XCircuit Version 3.7
File "amfm.ps" Page 1
</desc>
<g stroke="black">
<path d="M304,64 L304,112 368,112 368,64 z" fill="none" stroke-width="2" stroke-linejoin="bevel" stroke-linecap="round" stroke="#000000" />
<g transform="matrix(   1    0   -0    1 336 192)" fill="#000000" >
<text stroke="none" font-family="Helvetica" font-size="40" ><tspan x="-26" y="0">A2</tspan>
</text></g>
<path d="M304,160 L304,208 368,208 368,160 z" fill="none" stroke-width="2" stroke-linejoin="bevel" stroke-linecap="round" stroke="#000000" />
<g transform="matrix(   1    0   -0    1 336  96)" fill="#000000" >
<text stroke="none" font-family="Helvetica" font-size="40" ><tspan x="-21" y="0">A1</tspan>
</text></g>
<path d="M16,16 L16,112 208,112 208,16 z" fill="none" stroke-width="2" stroke-linejoin="bevel" stroke-linecap="round" stroke="#000000" />
<g transform="matrix(   1    0   -0    1 336 288)" fill="#000000" >
<text stroke="none" font-family="Helvetica" font-size="40" ><tspan x="-43" y="0">GND</tspan>
</text></g>
<path d="M0,0 L0,336 400,336 400,0 z" fill="none" stroke-width="2" stroke-linejoin="bevel" stroke-linecap="round" stroke="#000000" />
<g transform="matrix(   1    0   -0    1 112  96)" fill="#000000" >
<text stroke="none" font-family="Helvetica" font-size="40" ><tspan x="-91" y="0">AM output</tspan>
</text></g>
<path d="M16,144 L16,224 224,224 224,144 z" fill="none" stroke-width="2" stroke-linejoin="bevel" stroke-linecap="round" stroke="#000000" />
<g transform="matrix(   1    0   -0    1 112 208)" fill="#000000" >
<text stroke="none" font-family="Helvetica" font-size="40" ><tspan x="-53" y="0">Signal</tspan>
</text></g>
<path d="M208,80 C209,80 272,112 304,80 " fill="none" stroke-width="2" stroke-linejoin="bevel" stroke-linecap="round" stroke="#000000" />
<g transform="matrix(   1    0   -0    1  96 288)" fill="#000000" >
<text stroke="none" font-family="Helvetica" font-size="40" ><tspan x="-43" y="0">GND</tspan>
</text></g>
<path d="M48,256 L48,304 144,304 144,256 z" fill="none" stroke-width="2" stroke-linejoin="bevel" stroke-linecap="round" stroke="#000000" />
<path d="M288,256 L288,304 384,304 384,256 z" fill="none" stroke-width="2" stroke-linejoin="bevel" stroke-linecap="round" stroke="#000000" />
<path d="M144,272 C145,272 240,240 288,272 " fill="none" stroke-width="2" stroke-linejoin="bevel" stroke-linecap="round" stroke="#000000" />
<g transform="matrix(   1    0   -0    1  32  48)" fill="#000000" >
<text stroke="none" font-family="Helvetica" font-size="40" ><tspan x="0" y="0">External</tspan>
</text></g>
<g transform="matrix(   1    0   -0    1  32 176)" fill="#000000" >
<text stroke="none" font-family="Helvetica" font-size="40" ><tspan x="0" y="0">Modulating</tspan>
</text></g>
<path d="M224,192 C225,192 304,208 304,176 " fill="none" stroke-width="2" stroke-linejoin="bevel" stroke-linecap="round" stroke="#000000" />
</g>
</svg>
